svg/azure-nat.svg

<?xml version="1.0" encoding="UTF-8"?>
<svg xmlns="http://www.w3.org/2000/svg" xmlns:xlink="http://www.w3.org/1999/xlink" width="32" height="32" viewBox="0 0 32 32">
<defs>
<linearGradient id="linear-pattern-0" gradientUnits="userSpaceOnUse" x1="9" y1="18.17" x2="9" y2="1.506" gradientTransform="matrix(1.77778, 0, 0, 1.77778, 0, 0)">
<stop offset="0" stop-color="rgb(13.72549%, 54.117647%, 69.019608%)" stop-opacity="1"/>
<stop offset="0.109" stop-color="rgb(17.647059%, 64.313725%, 78.431373%)" stop-opacity="1"/>
<stop offset="0.775" stop-color="rgb(24.313725%, 82.745098%, 94.901961%)" stop-opacity="1"/>
</linearGradient>
</defs>
<path fill-rule="nonzero" fill="url(#linear-pattern-0)" d="M 0.535156 15.257812 L 15.253906 0.535156 C 15.664062 0.125 16.332031 0.125 16.742188 0.535156 L 31.464844 15.257812 C 31.660156 15.453125 31.773438 15.722656 31.773438 16 C 31.773438 16.277344 31.660156 16.546875 31.464844 16.742188 L 16.742188 31.464844 C 16.332031 31.875 15.667969 31.875 15.253906 31.464844 L 0.535156 16.742188 C 0.125 16.332031 0.125 15.667969 0.535156 15.257812 M 0.535156 15.257812 "/>
<path fill-rule="nonzero" fill="rgb(61.176471%, 92.156863%, 100%)" fill-opacity="1" d="M 25.050781 17.898438 L 24.414062 17.261719 L 24.414062 14.808594 L 19.335938 14.808594 L 19.335938 17.511719 L 21.613281 17.511719 L 15.894531 23.234375 L 10.171875 17.511719 L 12.484375 17.511719 L 12.484375 14.808594 L 6.90625 14.808594 L 6.90625 17.511719 L 7.117188 17.511719 L 6.734375 17.898438 L 14.730469 25.894531 L 15.894531 24.734375 L 17.054688 25.894531 Z M 25.050781 17.898438 "/>
<path fill-rule="nonzero" fill="rgb(100%, 100%, 100%)" fill-opacity="1" d="M 5.074219 14.171875 C 4.339844 14.878906 4.050781 15.925781 4.3125 16.910156 C 4.578125 17.894531 5.347656 18.660156 6.332031 18.921875 C 7.316406 19.179688 8.363281 18.882812 9.066406 18.148438 C 9.796875 17.441406 10.089844 16.394531 9.828125 15.410156 C 9.570312 14.421875 8.796875 13.652344 7.808594 13.398438 C 6.824219 13.140625 5.777344 13.4375 5.074219 14.171875 "/>
<path fill-rule="nonzero" fill="rgb(52.54902%, 83.921569%, 20%)" fill-opacity="1" d="M 5.929688 15.023438 C 5.308594 15.652344 5.316406 16.664062 5.945312 17.285156 C 6.574219 17.914062 7.585938 17.917969 8.207031 17.296875 C 8.625 16.898438 8.792969 16.300781 8.644531 15.738281 C 8.496094 15.175781 8.054688 14.734375 7.492188 14.585938 C 6.933594 14.4375 6.335938 14.605469 5.933594 15.023438 "/>
<path fill-rule="nonzero" fill="rgb(100%, 100%, 100%)" fill-opacity="1" d="M 22.917969 14.171875 C 22.203125 14.878906 21.925781 15.917969 22.191406 16.890625 C 22.453125 17.867188 23.21875 18.628906 24.195312 18.886719 C 25.167969 19.144531 26.203125 18.863281 26.910156 18.148438 C 27.621094 17.4375 27.898438 16.402344 27.636719 15.429688 C 27.371094 14.457031 26.609375 13.695312 25.632812 13.4375 C 24.660156 13.175781 23.625 13.457031 22.917969 14.171875 "/>
<path fill-rule="nonzero" fill="rgb(52.54902%, 83.921569%, 20%)" fill-opacity="1" d="M 23.777344 15.023438 C 23.359375 15.425781 23.191406 16.023438 23.339844 16.582031 C 23.488281 17.144531 23.929688 17.585938 24.492188 17.734375 C 25.050781 17.882812 25.648438 17.714844 26.050781 17.296875 C 26.46875 16.894531 26.636719 16.296875 26.488281 15.738281 C 26.339844 15.175781 25.898438 14.734375 25.335938 14.585938 C 24.777344 14.4375 24.179688 14.605469 23.777344 15.023438 "/>
<path fill-rule="nonzero" fill="rgb(100%, 100%, 100%)" fill-opacity="1" d="M 19.625 8.542969 L 16.070312 4.988281 C 16.019531 4.9375 15.953125 4.910156 15.882812 4.910156 C 15.8125 4.910156 15.742188 4.9375 15.691406 4.988281 L 12.136719 8.542969 C 12.058594 8.617188 12.035156 8.734375 12.078125 8.835938 C 12.117188 8.9375 12.214844 9.003906 12.324219 9 L 14.34375 9 C 14.449219 9 14.535156 9.085938 14.535156 9.191406 L 14.535156 27.4375 L 17.246094 27.4375 L 17.246094 9.191406 C 17.246094 9.089844 17.320312 9.007812 17.421875 9 L 19.433594 9 C 19.542969 9.003906 19.640625 8.941406 19.683594 8.839844 C 19.726562 8.738281 19.703125 8.621094 19.625 8.542969 M 13.886719 23.148438 C 13.175781 23.859375 12.898438 24.898438 13.164062 25.867188 C 13.429688 26.84375 14.191406 27.601562 15.164062 27.863281 C 16.136719 28.121094 17.175781 27.839844 17.882812 27.125 C 18.59375 26.414062 18.871094 25.378906 18.605469 24.40625 C 18.339844 23.433594 17.578125 22.675781 16.605469 22.410156 C 15.632812 22.152344 14.597656 22.433594 13.886719 23.148438 "/>
<path fill-rule="nonzero" fill="rgb(52.54902%, 83.921569%, 20%)" fill-opacity="1" d="M 14.746094 24 C 14.125 24.628906 14.132812 25.644531 14.761719 26.265625 C 15.386719 26.894531 16.398438 26.894531 17.027344 26.273438 C 17.648438 25.644531 17.640625 24.628906 17.011719 24.007812 C 16.710938 23.707031 16.304688 23.535156 15.878906 23.535156 C 15.457031 23.53125 15.046875 23.699219 14.746094 24 "/>
</svg>

<svg role="img" viewBox="0 0 32 32" height="32" width="32" xmlns="http://www.w3.org/2000/svg"><defs><linearGradient gradientTransform="scale(1.77778)" gradientUnits="userSpaceOnUse" id="35__34__67__66__252__251__538__537__522__521__252__251__436__435__332__331__410__409__247__246__azure-nat_svg__svg/azure-nat.svg807__svg/azure-nat.svg805__azure-nat-lp-0" x1="9" x2="9" y1="18.17" y2="1.506"><stop offset="0" stop-color="rgb(13.72549%, 54.117647%, 69.019608%)"/><stop offset=".109" stop-color="rgb(17.647059%, 64.313725%, 78.431373%)"/><stop offset=".775" stop-color="rgb(24.313725%, 82.745098%, 94.901961%)"/></linearGradient></defs><path d="M.535 15.258 15.254.535c.41-.41 1.078-.41 1.488 0l14.723 14.723c.195.195.308.465.308.742 0 .277-.113.547-.308.742L16.742 31.465c-.41.41-1.074.41-1.488 0L.535 16.742a1.05 1.05 0 0 1 0-1.484m0 0" fill="url(#35__34__67__66__252__251__538__537__522__521__252__251__436__435__332__331__410__409__247__246__azure-nat_svg__svg/azure-nat.svg807__svg/azure-nat.svg805__azure-nat-lp-0)"/><path d="m25.05 17.898-.636-.636v-2.453h-5.078v2.703h2.277l-5.718 5.722-5.723-5.722h2.312v-2.703H6.906v2.703h.211l-.383.386 7.996 7.997 1.165-1.16 1.16 1.16Zm0 0" fill="rgb(61.176471%, 92.156863%, 100%)"/><path d="M5.074 14.172a2.798 2.798 0 0 0-.761 2.738 2.849 2.849 0 0 0 2.019 2.012 2.803 2.803 0 0 0 2.734-.774 2.807 2.807 0 0 0 .762-2.738 2.816 2.816 0 0 0-2.02-2.012 2.803 2.803 0 0 0-2.734.774" fill="rgb(100%, 100%, 100%)"/><path d="M5.93 15.023a1.599 1.599 0 0 0 .015 2.262c.63.63 1.64.633 2.262.012.418-.399.586-.996.438-1.559a1.622 1.622 0 0 0-1.153-1.152 1.597 1.597 0 0 0-1.558.437" fill="rgb(52.54902%, 83.921569%, 20%)"/><path d="M22.918 14.172a2.79 2.79 0 0 0-.727 2.719 2.82 2.82 0 0 0 2.004 1.996 2.806 2.806 0 0 0 2.715-.739 2.81 2.81 0 0 0 .727-2.718 2.829 2.829 0 0 0-2.004-1.992 2.795 2.795 0 0 0-2.715.734" fill="rgb(100%, 100%, 100%)"/><path d="M23.777 15.023c-.418.403-.586 1-.437 1.559a1.62 1.62 0 0 0 1.152 1.152 1.597 1.597 0 0 0 1.559-.437c.418-.402.586-1 .437-1.559a1.622 1.622 0 0 0-1.152-1.152 1.597 1.597 0 0 0-1.559.437" fill="rgb(52.54902%, 83.921569%, 20%)"/><path d="M19.625 8.543 16.07 4.988a.263.263 0 0 0-.187-.078c-.07 0-.14.027-.192.078l-3.554 3.555a.263.263 0 0 0-.059.293c.04.101.137.168.246.164h2.02c.105 0 .191.086.191.191v18.246h2.711V9.192c0-.101.074-.183.176-.191h2.012a.26.26 0 0 0 .25-.16.27.27 0 0 0-.059-.297m-5.738 14.605a2.802 2.802 0 0 0-.723 2.72 2.836 2.836 0 0 0 2 1.995 2.813 2.813 0 0 0 2.719-.738 2.8 2.8 0 0 0 .722-2.719 2.85 2.85 0 0 0-2-1.996 2.813 2.813 0 0 0-2.718.738" fill="rgb(100%, 100%, 100%)"/><path d="M14.746 24a1.603 1.603 0 0 0 .016 2.266 1.603 1.603 0 0 0 2.265.007 1.603 1.603 0 0 0-.015-2.265A1.6 1.6 0 0 0 14.746 24" fill="rgb(52.54902%, 83.921569%, 20%)"/></svg>
